X: 6
T: Giga di Rocca Grimalda   [G]
R: jig
Z: 2010 John Chambers <jc:trillian.mit.edu>
D: La Ciapa Rusa: track "Carnevale di Roccagrimalda" from album "Ten da chent l'arch\"et che la sunada l'e longa"
S: printed MS of unknown origin
M: 6/8
L: 1/8
K: G
|: D \
| "G"G2F G2A | B2B BAB | d2d ded | B3 z2 :|
|: B/c/ \
| "D7"B2A ABc | B2A ABc | BAB dcB | Add dBc |
y4 \
| "D7"BAA ABc | BAA ABA "I"| GFE DEF | "G"G3 z2 :|

%%sep 1 1 400


